public/images/icons/icn_warning.svg

<svg width="32" height="30" viewBox="0 0 32 30" fill="none" xmlns="http://www.w3.org/2000/svg">
<path fill-rule="evenodd" clip-rule="evenodd" d="M29.1207 24.125L17.4294 3.875C16.6596 2.54166 14.7351 2.54167 13.9653 3.875L2.27392 24.125C1.50411 25.4583 2.46637 27.125 4.00596 27.125H27.3887C28.9283 27.125 29.8905 25.4583 29.1207 24.125ZM19.1614 2.875C17.6218 0.208336 13.7728 0.208331 12.2332 2.875L0.541867 23.125C-0.997734 25.7917 0.926761 29.125 4.00596 29.125H27.3887C30.4679 29.125 32.3924 25.7917 30.8528 23.125L19.1614 2.875Z" fill="#1C2B36"/>
<path fill-rule="evenodd" clip-rule="evenodd" d="M14.6973 19.875V8.875H16.6973V19.875H14.6973Z" fill="#1C2B36"/>
<path d="M17.1973 23.375C17.1973 24.2034 16.5257 24.875 15.6973 24.875C14.8689 24.875 14.1973 24.2034 14.1973 23.375C14.1973 22.5466 14.8689 21.875 15.6973 21.875C16.5257 21.875 17.1973 22.5466 17.1973 23.375Z" fill="#1C2B36"/>
<path fill-rule="evenodd" clip-rule="evenodd" d="M15.6973 22.875C15.4212 22.875 15.1973 23.0989 15.1973 23.375C15.1973 23.6511 15.4212 23.875 15.6973 23.875C15.9735 23.875 16.1973 23.6511 16.1973 23.375C16.1973 23.0989 15.9735 22.875 15.6973 22.875ZM15.6973 24.875C16.5257 24.875 17.1973 24.2034 17.1973 23.375C17.1973 22.5466 16.5257 21.875 15.6973 21.875C14.8689 21.875 14.1973 22.5466 14.1973 23.375C14.1973 24.2034 14.8689 24.875 15.6973 24.875Z" fill="#1C2B36"/>
</svg>

<svg fill="none" viewBox="0 0 32 30"><path fill="#1C2B36" fill-rule="evenodd" d="M29.12 24.125L17.43 3.875c-.77-1.333-2.695-1.333-3.465 0L2.274 24.125c-.77 1.333.192 3 1.732 3h23.383c1.54 0 2.502-1.667 1.732-3zm-9.959-21.25c-1.54-2.667-5.388-2.667-6.928 0L.542 23.125c-1.54 2.667.385 6 3.464 6h23.383c3.079 0 5.003-3.333 3.464-6L19.16 2.875z" clip-rule="evenodd"/><path fill="#1C2B36" fill-rule="evenodd" d="M14.697 19.875v-11h2v11h-2z" clip-rule="evenodd"/><path fill="#1C2B36" d="M17.197 23.375a1.5 1.5 0 11-3 0 1.5 1.5 0 013 0z"/><path fill="#1C2B36" fill-rule="evenodd" d="M15.697 22.875a.5.5 0 100 1 .5.5 0 000-1zm0 2a1.5 1.5 0 100-3 1.5 1.5 0 000 3z" clip-rule="evenodd"/></svg>
